X:7
T:Beaufort Castle
T:Caisteal D\`unaidh
R:Reel and Air
S:Simon Fraser Collection
N:No.103
O:Scottish
M:C
L:1/8
Q:1/4=140
K:A
C|A,CCE cAAc|BAGF ECCE|1 ACCE cAAe|eAEC (B,2 B,):|2 A,CCE cAeA|
cAEC (B,2 B,)||f|ecaf eccb|agaf eccf|ecaf eccb|agac B2 Bf|ecaf eccb|agaf
 efce|
cABG AcBc|AFEC (B,2 B,)||

